X:1
T:Title
%%score { 1 | 2 }
L:1/8
M:4/4
K:Ab
V:1 treble nm="Grand Piano"
V:2 bass 
V:1
 z4 z2 z[Q:1/4=92] [CE] | [Ec][DB][CA][DB] [Ec]2 [CA][CA]/[CA]/ |[M:7/8] [Fd][Fd][FA] [FB] [Ec]3 | %3
[M:1/8] [Ec] |[M:4/4] B=ABc B2 [Ge][EG]/[EG]/ |[M:7/8] [=DB][DA][DG] [DF] E3 |[M:1/8] [Fd]/[Fd]/ | %7
[M:4/4] [Ec][DB][CA][DB] [Ec]3 [Ec]/[Ec]/ |[M:7/8] [=DB][DF][DG] [DA] [_DB]3 |[M:1/8] [DE] | %10
[M:4/4] [Ec]edc [FB] F2 G/F/ |[M:7/8] Ecc B [CA]3 |] %12
V:2
 z4 z2 z [A,,A,] | [A,,A,][A,,A,][A,,A,][A,,A,] [A,,A,]2 [A,,A,][A,,A,]/[A,,A,]/ | %2
[M:7/8] [D,A,][D,A,][D,D] [D,A,] [A,,A,]3 |[M:1/8] [A,,A,] | %4
[M:4/4] [E,G,E][E,_G,E][E,=G,E][E,A,E] [E,G,E]2 [E,B,][E,B,]/[E,B,]/ | %5
[M:7/8] [B,,B,][B,,F,][B,,B,] [B,,A,] [E,G,]3 |[M:1/8] [E,G,]/[E,G,]/ | %7
[M:4/4] [A,,A,][A,,A,][A,,A,][A,,A,] [A,,A,]3 [A,,A,]/[A,,A,]/ | %8
[M:7/8] [B,,F,][B,,B,][B,,B,] [B,,A,] [E,G,]3 |[M:1/8] [E,G,] | %10
[M:4/4] [A,,A,][K:treble][A,CE][A,FA][A,EA][K:bass] [D,D] [D,A,D]2 [=D,A,_C]/[D,A,C]/ | %11
[M:7/8] [E,A,C][E,A,E][E,G,E] [E,G,D] [A,,A,]3 |] %12

